svgs/light/book-arrow-right.svg

<svg xmlns="http://www.w3.org/2000/svg" viewBox="0 0 640 512"><!-- Font Awesome Pro 6.0.0-alpha2 by @fontawesome - https://fontawesome.com License - https://fontawesome.com/license (Commercial License) --><path d="M432 272C423.164 272 416 279.162 416 288V368C416 376.836 408.836 384 400 384H64C52.289 384 41.453 387.389 32 392.9V80C32 53.49 53.492 32 80 32H400C408.836 32 416 39.162 416 48V128C416 136.836 423.164 144 432 144S448 136.836 448 128V48C448 21.49 426.508 0 400 0H80C35.816 0 0 35.816 0 80V448C0 483.346 28.656 512 64 512H431.164C439.133 512 446.512 506.545 447.781 498.678C449.406 488.646 441.719 480 432 480H416V413.053C434.586 406.426 448 388.832 448 368V288C448 279.162 440.836 272 432 272ZM384 480H64C46.359 480 32 465.641 32 448S46.359 416 64 416H384V480ZM635.312 196.688L539.312 100.688C533.062 94.438 522.937 94.438 516.688 100.688S510.438 117.063 516.688 123.312L585.375 192H272C263.156 192 256 199.156 256 208S263.156 224 272 224H585.375L516.688 292.688C510.438 298.938 510.438 309.063 516.688 315.312C519.812 318.438 523.906 320 528 320S536.188 318.438 539.312 315.312L635.312 219.312C641.562 213.062 641.562 202.938 635.312 196.688Z"/></svg>

<svg xmlns="http://www.w3.org/2000/svg" viewBox="0 0 640 512"><!--! Font Awesome Pro 6.4.0 by @fontawesome - https://fontawesome.com License - https://fontawesome.com/license (Commercial License) Copyright 2023 Fonticons, Inc. --><path d="M64 0C28.7 0 0 28.7 0 64L0 448l0 0c0 35.3 28.7 64 64 64H432c8.8 0 16-7.2 16-16s-7.2-16-16-16H416V413.3c18.6-6.6 32-24.4 32-45.3V272H416v96c0 8.8-7.2 16-16 16H64c-11.7 0-22.6 3.1-32 8.6L32 64c0-17.7 14.3-32 32-32H400c8.8 0 16 7.2 16 16v96h32V48c0-26.5-21.5-48-48-48H64zM384 416v64H64c-17.7 0-32-14.3-32-32s14.3-32 32-32H384zM539.3 100.7c-6.2-6.2-16.4-6.2-22.6 0s-6.2 16.4 0 22.6L585.4 192H272c-8.8 0-16 7.2-16 16s7.2 16 16 16H585.4l-68.7 68.7c-6.2 6.2-6.2 16.4 0 22.6s16.4 6.2 22.6 0l96-96c6.2-6.2 6.2-16.4 0-22.6l-96-96z"/></svg>
